X:365
T:The Pretty Girl Combing Her Locks
B:Joyce, P. W.; "Old Irish Folk Music and Songs"
N:See first paragraph in #361 for more information
R:song air
A:Cork
O:Irish
L:1/8
M:3/4
Z:Allan Garvin
K:C
"Slow."\
A|AB A2 AG|A>Bc2 e2|e>fe2 ce|d>cB3 c|
A>BA2 AG|AB c2 e2|eg e2 dB|A>B A3||e/f/|
gf e>f (3efg|fe d>e (3def|edB>edc|d2 B>AGB|
A>B A2 AG|ABc2 e2|eg e2 dB|A>B A3||
